X:61
T:Mazurka
R:Mazurka
O:France
M:3/4
K:G
D GA|B2 BAGF| E4 AB| cE (3EDE cA| B2 GDGA|\
B2 BAGF| E4 AB| cE (3EDE dF | G4:|
|:zD|GD GD Bd| c4A2|BG DG BG| AF DF AF|\
GzGzBd| c4 A2|BG DG AF| (G4 G) :|
